src/assets/filled/Airpods.svg

<svg width="24" height="24" viewBox="0 0 24 24"  xmlns="http://www.w3.org/2000/svg">
<path d="M7.67 2H5.78C4.74 2 3.8 2.42 3.11 3.11C2.42 3.8 2 4.74 2 5.78C2 7.86 3.7 9.56 5.78 9.56H6.72V17.11C6.72 17.84 7.14 18.47 7.75 18.78C8 18.92 8.3 19 8.61 19C8.83 19 9.05 18.96 9.25 18.88C9.98 18.62 10.5 17.93 10.5 17.11V4.83C10.5 3.28 9.22 2 7.67 2ZM5.78 5.97C6.19 5.97 6.53 6.31 6.53 6.72C6.53 7.13 6.19 7.47 5.78 7.47C4.85 7.47 4.09 6.71 4.09 5.77C4.09 4.83 4.85 4.08 5.78 4.08C6.19 4.08 6.53 4.42 6.53 4.83C6.53 5.24 6.19 5.58 5.78 5.58C5.67 5.58 5.59 5.67 5.59 5.77C5.59 5.87 5.67 5.97 5.78 5.97Z" />
<path d="M20.89 3.11C20.2 2.42 19.26 2 18.22 2H16.33C14.77 2 13.5 3.28 13.5 4.83V17.11C13.5 17.93 14.02 18.62 14.75 18.88C14.95 18.96 15.17 19 15.39 19C15.7 19 16 18.92 16.25 18.78C16.86 18.47 17.28 17.84 17.28 17.11V9.56H18.22C20.3 9.56 22 7.86 22 5.78C22 4.74 21.58 3.8 20.89 3.11ZM18.22 7.47C17.81 7.47 17.47 7.13 17.47 6.72C17.47 6.31 17.81 5.97 18.22 5.97C18.33 5.97 18.41 5.88 18.41 5.77C18.41 5.66 18.32 5.58 18.22 5.58C17.81 5.58 17.47 5.24 17.47 4.83C17.47 4.42 17.81 4.08 18.22 4.08C19.15 4.08 19.91 4.84 19.91 5.77C19.91 6.7 19.16 7.47 18.22 7.47Z" />
<path d="M9.25 18.8803V22.0003C9.25 22.4103 8.91 22.7503 8.5 22.7503C8.09 22.7503 7.75 22.4103 7.75 22.0003V18.7803C8 18.9203 8.3 19.0003 8.61 19.0003C8.83 19.0003 9.05 18.9603 9.25 18.8803Z" />
<path d="M16.25 18.7803V22.0003C16.25 22.4103 15.91 22.7503 15.5 22.7503C15.09 22.7503 14.75 22.4103 14.75 22.0003V18.8803C14.95 18.9603 15.17 19.0003 15.39 19.0003C15.7 19.0003 16 18.9203 16.25 18.7803Z" />
</svg>

<?xml version="1.0" encoding="UTF-8"?>
<svg width="24" height="24" viewBox="0 0 24 24" xmlns="http://www.w3.org/2000/svg">
 <path d="m7.67 2h-1.89c-1.04 0-1.98 0.42-2.67 1.11s-1.11 1.63-1.11 2.67c0 2.08 1.7 3.78 3.78 3.78h0.94v7.55c0 0.73 0.42 1.36 1.03 1.67 0.25 0.14 0.55 0.22 0.86 0.22 0.22 0 0.44-0.04 0.64-0.12 0.73-0.26 1.25-0.95 1.25-1.77v-12.28c0-1.55-1.28-2.83-2.83-2.83zm-1.89 3.97c0.41 0 0.75 0.34 0.75 0.75s-0.34 0.75-0.75 0.75c-0.93 0-1.69-0.76-1.69-1.7s0.76-1.69 1.69-1.69c0.41 0 0.75 0.34 0.75 0.75s-0.34 0.75-0.75 0.75c-0.11 0-0.19 0.09-0.19 0.19s0.08 0.2 0.19 0.2z"/>
 <path d="m20.89 3.11c-0.69-0.69-1.63-1.11-2.67-1.11h-1.89c-1.56 0-2.83 1.28-2.83 2.83v12.28c0 0.82 0.52 1.51 1.25 1.77 0.2 0.08 0.42 0.12 0.64 0.12 0.31 0 0.61-0.08 0.86-0.22 0.61-0.31 1.03-0.94 1.03-1.67v-7.55h0.94c2.08 0 3.78-1.7 3.78-3.78 0-1.04-0.42-1.98-1.11-2.67zm-2.67 4.36c-0.41 0-0.75-0.34-0.75-0.75s0.34-0.75 0.75-0.75c0.11 0 0.19-0.09 0.19-0.2s-0.09-0.19-0.19-0.19c-0.41 0-0.75-0.34-0.75-0.75s0.34-0.75 0.75-0.75c0.93 0 1.69 0.76 1.69 1.69s-0.75 1.7-1.69 1.7z"/>
 <path d="m9.25 18.88v3.12c0 0.41-0.34 0.75-0.75 0.75s-0.75-0.34-0.75-0.75v-3.22c0.25 0.14 0.55 0.22 0.86 0.22 0.22 0 0.44-0.04 0.64-0.12z"/>
 <path d="m16.25 18.78v3.22c0 0.41-0.34 0.75-0.75 0.75s-0.75-0.34-0.75-0.75v-3.12c0.2 0.08 0.42 0.12 0.64 0.12 0.31 0 0.61-0.08 0.86-0.22z"/>
</svg>
